assets/2nd place medal/Flat/2nd_place_medal_flat.svg

<svg width="32" height="32" viewBox="0 0 32 32" fill="none" xmlns="http://www.w3.org/2000/svg">
<path d="M18.7676 11.51L13.5476 2.93001C13.2076 2.35001 12.5976 2 11.9276 2H5.33762C3.88762 2 2.97762 3.56001 3.68762 4.82001C5.00762 7.15001 6.86762 9.14001 9.11762 10.6C9.87762 11.19 10.8176 11.51 11.7876 11.51H18.7676Z" fill="#0074BA"/>
<path d="M26.6575 2H20.0675C19.3975 2 18.7875 2.35001 18.4475 2.93001L13.2275 11.51H20.2175C21.1875 11.51 22.1175 11.19 22.8875 10.6C25.1375 9.14001 26.9975 7.16001 28.3175 4.82001C29.0175 3.56001 28.1075 2 26.6575 2Z" fill="#00A6ED"/>
<path d="M15.9599 30.0012C21.5049 30.0012 25.9999 25.3942 25.9999 19.7112C25.9999 14.0282 21.5049 9.4212 15.9599 9.4212C10.415 9.4212 5.91992 14.0282 5.91992 19.7112C5.91992 25.3942 10.415 30.0012 15.9599 30.0012Z" fill="#BEBEBE"/>
<path d="M15.9599 28.7611C13.5999 28.7611 11.3799 27.8211 9.71988 26.1111C8.04988 24.4011 7.12988 22.1311 7.12988 19.7111C7.12988 17.2911 8.04988 15.0211 9.71988 13.3111C13.1599 9.78114 18.7599 9.78114 22.2099 13.3111C25.6499 16.8411 25.6499 22.5811 22.2099 26.1111C20.5299 27.8211 18.3099 28.7611 15.9599 28.7611ZM15.9499 11.8911C13.9999 11.8911 12.0399 12.6511 10.5599 14.1811C9.11988 15.6611 8.32988 17.6211 8.32988 19.7111C8.32988 21.8011 9.11988 23.7611 10.5599 25.2411C11.9999 26.7211 13.9199 27.5311 15.9499 27.5311C17.9899 27.5311 19.8999 26.7211 21.3399 25.2411C24.3099 22.1911 24.3099 17.2311 21.3399 14.1811C19.8599 12.6511 17.9099 11.8911 15.9499 11.8911Z" fill="#E6E6E6"/>
<path d="M17.8376 23.95H13.8676C13.4776 23.95 13.1276 23.73 12.9576 23.37C12.7876 23.02 12.8376 22.6 13.0876 22.3L16.3876 18.25C16.6476 17.93 16.5276 17.59 16.4876 17.49C16.4376 17.37 16.2776 17.1 15.9076 17.09C15.8976 17.09 15.8776 17.09 15.8576 17.09C15.5376 17.09 15.2476 17.24 15.0576 17.5C14.7376 17.95 14.1076 18.06 13.6476 17.74C13.1876 17.42 13.0876 16.79 13.4076 16.33C13.9676 15.54 14.8776 15.07 15.8476 15.07C15.8976 15.07 15.9376 15.07 15.9776 15.07C16.9976 15.12 17.8876 15.73 18.3076 16.66C18.7376 17.62 18.5976 18.71 17.9376 19.52L15.9876 21.92H17.8276C18.3876 21.92 18.8376 22.37 18.8376 22.93C18.8376 23.49 18.3976 23.95 17.8376 23.95Z" fill="#636363"/>
</svg>

<svg xmlns="http://www.w3.org/2000/svg" width="32" height="32" fill="none"><path fill="#0074BA" d="m18.768 11.51-5.22-8.58c-.34-.58-.95-.93-1.62-.93h-6.59c-1.45 0-2.36 1.56-1.65 2.82a16.7 16.7 0 0 0 5.43 5.78c.76.59 1.7.91 2.67.91h6.98Z"/><path fill="#00A6ED" d="M26.657 2h-6.59c-.67 0-1.28.35-1.62.93l-5.22 8.58h6.99c.97 0 1.9-.32 2.67-.91 2.25-1.46 4.11-3.44 5.43-5.78.7-1.26-.21-2.82-1.66-2.82Z"/><path fill="#BEBEBE" d="M15.96 30.001c5.545 0 10.04-4.607 10.04-10.29 0-5.683-4.495-10.29-10.04-10.29-5.545 0-10.04 4.607-10.04 10.29 0 5.683 4.495 10.29 10.04 10.29Z"/><path fill="#E6E6E6" d="M15.96 28.761c-2.36 0-4.58-.94-6.24-2.65a9.098 9.098 0 0 1-2.59-6.4c0-2.42.92-4.69 2.59-6.4a8.69 8.69 0 0 1 12.49 0c3.44 3.53 3.44 9.27 0 12.8-1.68 1.71-3.9 2.65-6.25 2.65Zm-.01-16.87c-1.95 0-3.91.76-5.39 2.29a7.872 7.872 0 0 0-2.23 5.53c0 2.09.79 4.05 2.23 5.53a7.476 7.476 0 0 0 5.39 2.29c2.04 0 3.95-.81 5.39-2.29 2.97-3.05 2.97-8.01 0-11.06a7.46 7.46 0 0 0-5.39-2.29Z"/><path fill="#636363" d="M17.838 23.95h-3.97a1 1 0 0 1-.91-.58.995.995 0 0 1 .13-1.07l3.3-4.05c.26-.32.14-.66.1-.76a.636.636 0 0 0-.58-.4h-.05c-.32 0-.61.15-.8.41-.32.45-.95.56-1.41.24a1.01 1.01 0 0 1-.24-1.41c.56-.79 1.47-1.26 2.44-1.26h.13c1.02.05 1.91.66 2.33 1.59.43.96.29 2.05-.37 2.86l-1.95 2.4h1.84c.56 0 1.01.45 1.01 1.01s-.44 1.02-1 1.02Z"/></svg>
